X: 36624
T: Shanahan's Rambles
R: jig
M: 6/8
K: Gmajor
|:F/E/|DGG BAG|dBG BAG|DGG BAG|EAA ABE|
DGG BAG|dBG B/c/dG|DGG A/B/cA|BGF G2:|
|:B/c/|d2 g fdc|B2 d cAE|DGG BAG|FAA AA/B/c|
d2 g fdc|BGd cAF|DGG AcA|BGF G2:|

